public/icons/dog-psie-przedszkole.svg

<?xml version="1.0" encoding="UTF-8" standalone="no"?>
<svg
   width="105.17632"
   zoomAndPan="magnify"
   viewBox="0 0 78.840168 146.35859"
   height="195.14479"
   preserveAspectRatio="xMidYMid"
   version="1.0"
   id="svg2"
   sodipodi:docname="dog-psie-przedszkole.svg"
   inkscape:version="1.4 (86a8ad7, 2024-10-11)"
   xmlns:inkscape="http://www.inkscape.org/namespaces/inkscape"
   xmlns:sodipodi="http://sodipodi.sourceforge.net/DTD/sodipodi-0.dtd"
   xmlns="http://www.w3.org/2000/svg"
   xmlns:svg="http://www.w3.org/2000/svg">
  <sodipodi:namedview
     id="namedview2"
     pagecolor="#ffffff"
     bordercolor="#000000"
     borderopacity="0.25"
     inkscape:showpageshadow="2"
     inkscape:pageopacity="0.0"
     inkscape:pagecheckerboard="0"
     inkscape:deskcolor="#d1d1d1"
     inkscape:zoom="3.89"
     inkscape:cx="52.442159"
     inkscape:cy="96.529563"
     inkscape:window-width="1920"
     inkscape:window-height="1009"
     inkscape:window-x="2552"
     inkscape:window-y="-8"
     inkscape:window-maximized="1"
     inkscape:current-layer="svg2" />
  <defs
     id="defs1">
    <clipPath
       id="e77f3bcfed">
      <path
         d="m 73,40 h 79 V 186.80859 H 73 Z m 0,0"
         clip-rule="nonzero"
         id="path1" />
    </clipPath>
  </defs>
  <g
     clip-path="url(#e77f3bcfed)"
     id="g2"
     transform="matrix(0.8,0,0,0.8,-50.570453,-2.8431919)">
    <path
       fill="#3e745f"
       d="M 90.835938,73.578125 C 91.109375,73.351562 90.917969,73.042969 91,72.785156 c 0,-0.04297 -0.07031,-0.113281 -0.121094,-0.183594 0.195313,-0.609374 0.06641,-0.816406 -0.867187,-3.671874 -0.445313,-1.375 -0.941407,-1.507813 -1.445313,-5.300782 -0.375,-2.859375 0.140625,-4.40625 -0.203125,-4.6875 -0.449219,0.582032 0.08203,0.875 -0.871093,3.527344 -0.117188,0.308594 -0.02734,0 -0.46875,1.855469 -0.542969,2.304687 -1.410157,4.113281 -2.167969,6.078125 -0.488281,1.273437 -1.988281,3.726562 -3.136719,4.117187 -1.515625,0.519531 -0.128906,-2.316406 -2.304688,-5.039062 -0.25,-0.308594 -0.445312,-0.679688 -0.699218,-0.992188 -2.121094,-2.539062 -1.433594,-1.453125 -2.625,-3.367187 -1.160156,-1.855469 -1.699219,-2.535156 -2.492188,-6.429688 -0.511718,-2.53125 -0.02344,-2.335937 -0.304687,-2.917968 -0.222657,-0.464844 0.542969,-0.921876 2.246093,-2.757813 0.539063,-0.585937 1.316407,-0.570313 2.421876,-1.53125 0.847656,-0.742187 2.609374,-1.835937 3.980468,-2.789063 2.371094,-1.660156 1.054688,-0.835937 2.335938,-1.609374 3.652344,-2.199219 3.832031,-1.835938 4.738281,-2.636719 0.890625,-0.535157 1.808594,-1.019531 2.753906,-1.453125 1.65625,-0.71875 1.613281,0.304687 3.65625,-0.08984 3,-0.585938 8.695309,-4.441406 15.910159,-1.910156 1.8164,0.640625 3.48437,1.558594 4.99609,2.757812 0.86328,0.710938 2.21875,1.648438 2.97656,2.394532 1.02735,1 2.23438,1.679687 3.6211,2.042968 0.51172,0.113282 0.58203,0 1.16015,0.445313 0.92188,0.75 1.78125,1.566406 2.57813,2.449219 0.55859,0.71875 1.29687,1.171874 1.625,1.554687 6.03906,7.117187 7.96094,9.589844 8.23437,9.925781 1.51172,1.800782 0.72266,0.203125 2.41016,3.652344 0.27344,0.554688 -0.0273,0.75 0,1.109375 0.13281,1.394531 -2.75781,5.136719 -2.75781,5.140625 -0.66407,1.078125 -2.8125,3.0625 -4.88282,4.058594 -0.74609,0.355468 -1.9375,0.871094 -2.64062,1.226562 -0.19922,0.121094 -0.37891,0.261719 -0.54297,0.429688 -1.55078,1.105468 -1.24609,2.269531 -1.71094,2.636718 -0.0625,0.07813 -0.0937,0.167969 -0.0977,0.269532 -0.0547,0.382812 -0.53516,0.824218 -0.96875,0.527344 -0.65235,-0.542969 -1.10156,-1.21875 -1.34766,-2.03125 -0.83203,-3.402344 -1.22265,-2.058594 -1.70312,-11.199219 0,-0.257813 -0.0703,-0.515625 -0.0781,-0.773438 -0.0586,-1.871093 0,-1.988281 -0.0898,-2.699219 -0.3086,0.09766 -0.32813,0.328126 -0.57422,1.105469 -1.01563,3.1875 -0.91797,2.992188 -1.17969,3.40625 -0.72265,1.199219 -0.64844,1.667969 -0.93359,2.175781 -0.0234,0.04297 -0.0625,0.09766 -0.0508,0.136719 0.0742,0.289063 -0.125,0.511719 -0.16407,0.761719 -0.0703,0.242188 -0.16796,0.472656 -0.28906,0.691406 -0.0586,0.171875 -0.0977,0.347656 -0.15234,0.515625 -0.14453,0.398438 -0.3711,0.921875 -0.39063,1.023438 -0.0781,0.394531 -0.27734,1.476562 -0.27734,1.480469 -0.0352,2.246093 0.0469,2.316406 -0.19922,2.753906 -0.48828,0.867187 0,1.503906 -0.10547,1.671875 -0.10547,0.171875 -0.0469,0.378906 -0.0156,0.570312 0.14453,0.855469 0.40234,1.671875 0.77734,2.449219 3.60547,7.167969 4.73047,6.433594 6.43359,12.601562 0.0937,0.351563 0.69141,2.5625 0.71485,3.007813 0.0312,0.507813 0.24609,0.984371 0.45703,2.238281 0.0781,0.58593 0.28906,1.12109 0.62891,1.60156 0.32812,0.44141 0.57812,0.94141 0.875,1.41016 3.54687,5.58203 4.52343,6.28906 6.02734,9.41406 1.0664,2.22265 2.21094,5.08203 2.58594,5.76172 0.91796,1.66015 1.29687,4.25 1.29687,4.2539 0.69531,3.29297 0.67969,1.53125 1.125,5.15235 0.34375,2.80859 0.86719,2.375 0.82031,4.10546 -0.082,2.71485 -0.10937,3.53907 0.85157,4.41016 0.61718,0.59375 1.30078,1.09766 2.04687,1.51172 0.94922,0.46875 1.64063,1.18359 2.07813,2.14453 1.1289,2.58984 0.32812,2.80469 0.98046,4.55859 0.74219,1.98047 2.10157,2.59766 2.59375,6.19922 0.5625,4.11328 -3.58203,12.33594 -4.48046,14.54297 -1.70704,4.20703 -1.75,4.09375 -2.65625,5.67188 -0.47657,0.83203 -0.19922,0.76953 -0.72266,2.14453 -0.67578,1.77734 -0.72266,2.24219 -0.30859,4.17187 0.0273,0.14453 0.0937,0.26953 0.19921,0.36719 0.10938,0.10156 0.23438,0.16406 0.37891,0.17969 1.13672,0.20703 5.02344,1.16797 8.73438,0.77344 0.47265,-0.0547 0.93359,0.008 1.375,0.1875 1.32421,0.53906 1.47265,0.59375 1.24218,1.10156 -1.30078,2.8789 -6.66015,2.18359 -10.57031,2.71094 -0.76562,0.10156 -1.02734,-0.11719 -1.19141,0.30468 -0.70312,1.83594 -2.49609,1.89063 -11.17968,1.53125 -0.54297,-0.0234 -0.26172,0.61328 -1.36719,0.62891 -4.37891,0.0898 -5.69922,0.18359 -11.46484,0.15234 -0.63282,0 -0.58594,-0.082 -2.54297,-0.1914 -0.57813,-0.0312 -1.15625,-0.0508 -1.73438,-0.0898 -0.20703,-0.0195 -0.40625,-0.0742 -0.59375,-0.16406 -0.1875,-0.0937 -0.35156,-0.21484 -0.49609,-0.36719 -0.14063,-0.15625 -0.25,-0.32812 -0.32422,-0.52343 -0.0781,-0.19532 -0.11719,-0.39844 -0.11719,-0.60547 0,-0.14844 -0.0195,-0.29297 -0.0352,-0.47266 -0.95703,-0.0742 1.71484,0 -10.957035,-0.0703 -7.683594,-0.0508 -7.398437,-0.16797 -7.523437,0.23047 -0.5,1.64062 -2.277344,1.09765 -5.289063,1.08593 -9.453125,-0.0352 -7.777344,-0.0195 -11.964844,-0.44921 -1.429687,-0.15235 -0.917969,-1.01563 -1.371093,-1.55469 -0.285157,-0.32422 0.390624,-0.73438 0.402343,-1.15235 0.02344,-0.80468 0.53125,-1.20703 1.6875,-2.85937 0.636719,-0.92188 1.515625,-2.28516 1.921875,-2.80859 0.863282,-1.10938 1.5625,-0.46485 1.957032,-1.48829 0.238281,-0.60937 1.484374,-2.10546 1.597656,-6.46093 0.05859,-2.40235 0.07813,-1.76953 0.425781,-3.31641 0.3125,-2.43359 0.441406,-4.87891 0.394531,-7.33203 -0.01563,-1.10938 -0.234375,-3.87109 0.05469,-4.90234 0.238281,-0.85157 0.375,-4.16407 0.359375,-4.65625 -0.101563,-3.17969 -0.02344,-2.26954 -0.05469,-3.24219 0,-0.4375 -0.15625,-1.09766 -0.144531,-1.20703 0.02734,-0.61328 0.01172,-1.22657 -0.04687,-1.83985 -0.02344,-0.87109 0,-1.74609 -0.05469,-2.61718 -0.101563,-1.6875 -0.488282,-3.58594 -0.273438,-5.17969 0.574219,-4.26563 -0.515625,-3.19922 0.832031,-7.20313 0.257813,-0.76171 0.6875,-1.05859 0.542969,-1.71484 -0.132812,-0.61328 -0.109375,-1.42578 -0.507812,-2.70312 -0.949219,-2.65625 -1.347657,-5.39454 -1.199219,-8.21094 0,0 -0.1875,-1.71094 0.308593,-8.96485 0.05859,-0.87109 0.78125,-4.51562 0.878907,-4.78125 1.328125,-3.730461 0.980469,-2.734367 1.628906,-4.289055 0.765625,-1.820312 0.648437,-1.582031 0.679687,-1.636719 3.222657,-5.535156 3.628907,-5.632812 3.738282,-6.734374 0.101562,-0.503907 0.226562,-1.003907 0.382812,-1.492188 0.128906,-0.582031 0.703125,-0.796875 1.679688,-4.234375 0.15625,-0.429687 0.277344,-0.863281 0.367187,-1.308594 0.07031,-0.5625 0.132813,-1.125 0.25,-1.675781 0.117188,-0.667969 0.101563,-1.328125 -0.04297,-1.992188 -0.03906,-1.34375 0.164063,-1.871093 0,-2.535156 -0.04297,-0.191406 -0.03906,-0.378906 0.01953,-0.566406 0.05859,-0.195312 -0.164063,-0.386719 0.01563,-0.566406 z m 2.054687,91.082035 c -0.02344,0.0664 -0.03906,0.13281 -0.04687,0.20312 -0.09375,2.67188 -0.210938,2.46875 -0.28125,3.11719 -0.484375,4.5039 -0.03516,4.86719 -0.222656,5.55078 -0.109375,0.49219 -0.03125,0.95703 0.234375,1.38672 0.128906,0.26562 0.195312,0.28515 0.5,0.23047 1.246093,-0.20703 1.269531,0 2.027343,-0.30469 2.015626,-0.77734 2.386719,-0.90234 3.1875,-1.04688 0.554688,-0.10156 0.425782,-0.51562 0.816407,-0.78515 0.59375,-0.41016 0,-0.82813 0.195312,-1.87891 0.08984,-0.49609 -0.148437,-0.69922 -1.761719,-2.10547 -1.035156,-0.89843 -0.589843,-0.21875 -1.914062,-1.29297 -0.523438,-0.41796 -1.09375,-0.78125 -1.511719,-1.34375 -1.347656,-1.8125 -0.960937,-1.79296 -1.222656,-1.73046 z m 20.085935,11.35937 c 0.16797,-0.17969 0.12891,0.0625 0.44922,-1.42578 0.0469,-0.21094 -0.082,-0.26953 -0.875,-0.76172 -0.10156,-0.0625 -0.20312,-0.10937 -0.36328,-0.19141 -0.008,0.92188 0.37109,1.63282 0.78906,2.37891 z m 0,0"
       fill-opacity="1"
       fill-rule="nonzero"
       id="path2" />
  </g>
</svg>

<svg xmlns="http://www.w3.org/2000/svg" xmlns:xlink="http://www.w3.org/1999/xlink" width="300" zoomAndPan="magnify" viewBox="0 0 224.87999 225" height="300" preserveAspectRatio="xMidYMid meet" version="1.0"><defs><clipPath id="1dc6cc825a"><path d="M 73 40 L 152 40 L 152 186.808594 L 73 186.808594 Z M 73 40 " clip-rule="nonzero"/></clipPath></defs><g clip-path="url(#1dc6cc825a)"><path fill="#f5ded2" d="M 90.835938 73.578125 C 91.109375 73.351562 90.917969 73.042969 91 72.785156 C 91 72.742188 90.929688 72.671875 90.878906 72.601562 C 91.074219 71.992188 90.945312 71.785156 90.011719 68.929688 C 89.566406 67.554688 89.070312 67.421875 88.566406 63.628906 C 88.191406 60.769531 88.707031 59.222656 88.363281 58.941406 C 87.914062 59.523438 88.445312 59.816406 87.492188 62.46875 C 87.375 62.777344 87.464844 62.46875 87.023438 64.324219 C 86.480469 66.628906 85.613281 68.4375 84.855469 70.402344 C 84.367188 71.675781 82.867188 74.128906 81.71875 74.519531 C 80.203125 75.039062 81.589844 72.203125 79.414062 69.480469 C 79.164062 69.171875 78.96875 68.800781 78.714844 68.488281 C 76.59375 65.949219 77.28125 67.035156 76.089844 65.121094 C 74.929688 63.265625 74.390625 62.585938 73.597656 58.691406 C 73.085938 56.160156 73.574219 56.355469 73.292969 55.773438 C 73.070312 55.308594 73.835938 54.851562 75.539062 53.015625 C 76.078125 52.429688 76.855469 52.445312 77.960938 51.484375 C 78.808594 50.742188 80.570312 49.648438 81.941406 48.695312 C 84.3125 47.035156 82.996094 47.859375 84.277344 47.085938 C 87.929688 44.886719 88.109375 45.25 89.015625 44.449219 C 89.90625 43.914062 90.824219 43.429688 91.769531 42.996094 C 93.425781 42.277344 93.382812 43.300781 95.425781 42.90625 C 98.425781 42.320312 104.121094 38.464844 111.335938 40.996094 C 113.152344 41.636719 114.820312 42.554688 116.332031 43.753906 C 117.195312 44.464844 118.550781 45.402344 119.308594 46.148438 C 120.335938 47.148438 121.542969 47.828125 122.929688 48.191406 C 123.441406 48.304688 123.511719 48.191406 124.089844 48.636719 C 125.011719 49.386719 125.871094 50.203125 126.667969 51.085938 C 127.226562 51.804688 127.964844 52.257812 128.292969 52.640625 C 134.332031 59.757812 136.253906 62.230469 136.527344 62.566406 C 138.039062 64.367188 137.25 62.769531 138.9375 66.21875 C 139.210938 66.773438 138.910156 66.96875 138.9375 67.328125 C 139.070312 68.722656 136.179688 72.464844 136.179688 72.46875 C 135.515625 73.546875 133.367188 75.53125 131.296875 76.527344 C 130.550781 76.882812 129.359375 77.398438 128.65625 77.753906 C 128.457031 77.875 128.277344 78.015625 128.113281 78.183594 C 126.5625 79.289062 126.867188 80.453125 126.402344 80.820312 C 126.339844 80.898438 126.308594 80.988281 126.304688 81.089844 C 126.25 81.472656 125.769531 81.914062 125.335938 81.617188 C 124.683594 81.074219 124.234375 80.398438 123.988281 79.585938 C 123.15625 76.183594 122.765625 77.527344 122.285156 68.386719 C 122.285156 68.128906 122.214844 67.871094 122.207031 67.613281 C 122.148438 65.742188 122.207031 65.625 122.117188 64.914062 C 121.808594 65.011719 121.789062 65.242188 121.542969 66.019531 C 120.527344 69.207031 120.625 69.011719 120.363281 69.425781 C 119.640625 70.625 119.714844 71.09375 119.429688 71.601562 C 119.40625 71.644531 119.367188 71.699219 119.378906 71.738281 C 119.453125 72.027344 119.253906 72.25 119.214844 72.5 C 119.144531 72.742188 119.046875 72.972656 118.925781 73.191406 C 118.867188 73.363281 118.828125 73.539062 118.773438 73.707031 C 118.628906 74.105469 118.402344 74.628906 118.382812 74.730469 C 118.304688 75.125 118.105469 76.207031 118.105469 76.210938 C 118.070312 78.457031 118.152344 78.527344 117.90625 78.964844 C 117.417969 79.832031 117.90625 80.46875 117.800781 80.636719 C 117.695312 80.808594 117.753906 81.015625 117.785156 81.207031 C 117.929688 82.0625 118.1875 82.878906 118.5625 83.65625 C 122.167969 90.824219 123.292969 90.089844 124.996094 96.257812 C 125.089844 96.609375 125.6875 98.820312 125.710938 99.265625 C 125.742188 99.773438 125.957031 100.25 126.167969 101.503906 C 126.246094 102.089844 126.457031 102.625 126.796875 103.105469 C 127.125 103.546875 127.375 104.046875 127.671875 104.515625 C 131.21875 110.097656 132.195312 110.804688 133.699219 113.929688 C 134.765625 116.152344 135.910156 119.011719 136.285156 119.691406 C 137.203125 121.351562 137.582031 123.941406 137.582031 123.945312 C 138.277344 127.238281 138.261719 125.476562 138.707031 129.097656 C 139.050781 131.90625 139.574219 131.472656 139.527344 133.203125 C 139.445312 135.917969 139.417969 136.742188 140.378906 137.613281 C 140.996094 138.207031 141.679688 138.710938 142.425781 139.125 C 143.375 139.59375 144.066406 140.308594 144.503906 141.269531 C 145.632812 143.859375 144.832031 144.074219 145.484375 145.828125 C 146.226562 147.808594 147.585938 148.425781 148.078125 152.027344 C 148.640625 156.140625 144.496094 164.363281 143.597656 166.570312 C 141.890625 170.777344 141.847656 170.664062 140.941406 172.242188 C 140.464844 173.074219 140.742188 173.011719 140.21875 174.386719 C 139.542969 176.164062 139.496094 176.628906 139.910156 178.558594 C 139.9375 178.703125 140.003906 178.828125 140.109375 178.925781 C 140.21875 179.027344 140.34375 179.089844 140.488281 179.105469 C 141.625 179.3125 145.511719 180.273438 149.222656 179.878906 C 149.695312 179.824219 150.15625 179.886719 150.597656 180.066406 C 151.921875 180.605469 152.070312 180.660156 151.839844 181.167969 C 150.539062 184.046875 145.179688 183.351562 141.269531 183.878906 C 140.503906 183.980469 140.242188 183.761719 140.078125 184.183594 C 139.375 186.019531 137.582031 186.074219 128.898438 185.714844 C 128.355469 185.691406 128.636719 186.328125 127.53125 186.34375 C 123.152344 186.433594 121.832031 186.527344 116.066406 186.496094 C 115.433594 186.496094 115.480469 186.414062 113.523438 186.304688 C 112.945312 186.273438 112.367188 186.253906 111.789062 186.214844 C 111.582031 186.195312 111.382812 186.140625 111.195312 186.050781 C 111.007812 185.957031 110.84375 185.835938 110.699219 185.683594 C 110.558594 185.527344 110.449219 185.355469 110.375 185.160156 C 110.296875 184.964844 110.257812 184.761719 110.257812 184.554688 C 110.257812 184.40625 110.238281 184.261719 110.222656 184.082031 C 109.265625 184.007812 111.9375 184.082031 99.265625 184.011719 C 91.582031 183.960938 91.867188 183.84375 91.742188 184.242188 C 91.242188 185.882812 89.464844 185.339844 86.453125 185.328125 C 77 185.292969 78.675781 185.308594 74.488281 184.878906 C 73.058594 184.726562 73.570312 183.863281 73.117188 183.324219 C 72.832031 183 73.507812 182.589844 73.519531 182.171875 C 73.542969 181.367188 74.050781 180.964844 75.207031 179.3125 C 75.84375 178.390625 76.722656 177.027344 77.128906 176.503906 C 77.992188 175.394531 78.691406 176.039062 79.085938 175.015625 C 79.324219 174.40625 80.570312 172.910156 80.683594 168.554688 C 80.742188 166.152344 80.761719 166.785156 81.109375 165.238281 C 81.421875 162.804688 81.550781 160.359375 81.503906 157.90625 C 81.488281 156.796875 81.269531 154.035156 81.558594 153.003906 C 81.796875 152.152344 81.933594 148.839844 81.917969 148.347656 C 81.816406 145.167969 81.894531 146.078125 81.863281 145.105469 C 81.863281 144.667969 81.707031 144.007812 81.71875 143.898438 C 81.746094 143.285156 81.730469 142.671875 81.671875 142.058594 C 81.648438 141.1875 81.671875 140.3125 81.617188 139.441406 C 81.515625 137.753906 81.128906 135.855469 81.34375 134.261719 C 81.917969 129.996094 80.828125 131.0625 82.175781 127.058594 C 82.433594 126.296875 82.863281 126 82.71875 125.34375 C 82.585938 124.730469 82.609375 123.917969 82.210938 122.640625 C 81.261719 119.984375 80.863281 117.246094 81.011719 114.429688 C 81.011719 114.429688 80.824219 112.71875 81.320312 105.464844 C 81.378906 104.59375 82.101562 100.949219 82.199219 100.683594 C 83.527344 96.953125 83.179688 97.949219 83.828125 96.394531 C 84.59375 94.574219 84.476562 94.8125 84.507812 94.757812 C 87.730469 89.222656 88.136719 89.125 88.246094 88.023438 C 88.347656 87.519531 88.472656 87.019531 88.628906 86.53125 C 88.757812 85.949219 89.332031 85.734375 90.308594 82.296875 C 90.464844 81.867188 90.585938 81.433594 90.675781 80.988281 C 90.746094 80.425781 90.808594 79.863281 90.925781 79.3125 C 91.042969 78.644531 91.027344 77.984375 90.882812 77.320312 C 90.84375 75.976562 91.046875 75.449219 90.882812 74.785156 C 90.839844 74.59375 90.84375 74.40625 90.902344 74.21875 C 90.960938 74.023438 90.738281 73.832031 90.917969 73.652344 Z M 92.890625 164.660156 C 92.867188 164.726562 92.851562 164.792969 92.84375 164.863281 C 92.75 167.535156 92.632812 167.332031 92.5625 167.980469 C 92.078125 172.484375 92.527344 172.847656 92.339844 173.53125 C 92.230469 174.023438 92.308594 174.488281 92.574219 174.917969 C 92.703125 175.183594 92.769531 175.203125 93.074219 175.148438 C 94.320312 174.941406 94.34375 175.148438 95.101562 174.84375 C 97.117188 174.066406 97.488281 173.941406 98.289062 173.796875 C 98.84375 173.695312 98.714844 173.28125 99.105469 173.011719 C 99.699219 172.601562 99.105469 172.183594 99.300781 171.132812 C 99.390625 170.636719 99.152344 170.433594 97.539062 169.027344 C 96.503906 168.128906 96.949219 168.808594 95.625 167.734375 C 95.101562 167.316406 94.53125 166.953125 94.113281 166.390625 C 92.765625 164.578125 93.152344 164.597656 92.890625 164.660156 Z M 112.976562 176.019531 C 113.144531 175.839844 113.105469 176.082031 113.425781 174.59375 C 113.472656 174.382812 113.34375 174.324219 112.550781 173.832031 C 112.449219 173.769531 112.347656 173.722656 112.1875 173.640625 C 112.179688 174.5625 112.558594 175.273438 112.976562 176.019531 Z M 112.976562 176.019531 " fill-opacity="1" fill-rule="nonzero"/></g></svg>
